%
(Header)
(Generated by gcodetools from Inkscape.)
(Using default header. To add your own header create file "header" in the output dir.)
M3
(Header end.)
G21 (All units in mm)

(Start cutting path id: path10636)
(Change tool to Cone cutter)

G00 Z-1.000000
G00 X4.019153 Y11.560333

G01 Z1.000000 F100.0(Penetrate)
G01 X4.019153 Y16.902020 Z1.000000 F400.000000
G03 X7.420782 Y12.018759 Z1.000000 I11.674310 J4.505803
G03 X11.167519 Y10.603613 Z1.000000 I3.746737 J4.252352
G03 X13.939972 Y11.252773 Z1.000000 I-0.000000 J6.244914
G03 X16.799566 Y13.394047 Z1.000000 I-4.364009 J8.808057
G03 X18.907124 Y16.432172 Z1.000000 I-10.200355 J9.326095
G03 X20.770880 Y21.167397 Z1.000000 I-23.312237 J11.909951
G03 X21.777820 Y26.243236 Z1.000000 I-33.158906 J9.215826
G03 X22.166858 Y32.687903 Z1.000000 I-53.185554 J6.444667
G03 X21.818169 Y38.983572 Z1.000000 I-57.009355 J-0.000000
G03 X20.891223 Y44.168545 Z1.000000 I-39.538846 J-4.393232
G03 X19.122173 Y49.084680 Z1.000000 I-24.420396 J-6.011212
G03 X17.064320 Y52.101350 Z1.000000 I-11.065202 J-5.338018
G03 X14.227143 Y54.196767 Z1.000000 I-6.960887 J-6.456514
G03 X11.360068 Y54.851920 Z1.000000 I-2.867076 J-5.945867
G03 X9.208150 Y54.440280 Z1.000000 I0.000000 J-5.830581
G03 X7.244342 Y53.217523 Z1.000000 I2.399147 J-6.041513
G03 X5.669087 Y51.455567 Z1.000000 I6.659025 J-7.538563
G03 X4.307976 Y49.031872 Z1.000000 I11.390364 J-7.990700
G01 X4.307976 Y69.999989 Z1.000000
G01 X-0.000299 Y69.999989 Z1.000000
G01 X-0.000299 Y11.560333 Z1.000000
G01 X4.019153 Y11.560333 Z1.000000
G00 Z-1.000000

(End cutting path id: path10636)


(Start cutting path id: path10636)
(Change tool to Cone cutter)

G00 Z-1.000000
G00 X17.714171 Y32.687903

G01 Z1.000000 F100.0(Penetrate)
G02 X17.040662 Y24.718771 Z1.000000 I-47.483202 J-0.000000 F400.000000
G02 X15.644274 Y20.529585 Z1.000000 I-14.270496 J2.429486
G02 X13.068346 Y17.332530 Z1.000000 I-9.040321 J4.647694
G02 X10.758353 Y16.503387 Z1.000000 I-2.309992 J2.803250
G02 X8.416453 Y17.320861 Z1.000000 I0.000000 J3.763278
G02 X5.944639 Y20.330267 Z1.000000 I5.772724 J7.261332
G02 X4.599221 Y24.355551 Z1.000000 I12.267464 J6.337789
G02 X3.946947 Y32.089953 Z1.000000 I45.529620 J7.734402
G02 X4.618907 Y40.622320 Z1.000000 I54.506817 J-0.000000
G02 X5.968707 Y44.846222 Z1.000000 I14.450928 J-2.290349
G02 X8.525771 Y48.048290 Z1.000000 I8.701288 J-4.326527
G02 X10.950902 Y48.912282 Z1.000000 I2.425132 J-2.971544
G02 X13.321083 Y48.074782 Z1.000000 I-0.000000 J-3.772635
G02 X15.788686 Y45.005675 Z1.000000 I-5.816895 J-7.203405
G02 X17.072352 Y40.949489 Z1.000000 I-12.648050 J-6.233959
G02 X17.714171 Y32.687903 Z1.000000 I-52.851264 J-8.261586
G01 X17.714171 Y32.687903 Z1.000000
G00 Z-1.000000

(End cutting path id: path10636)


(Start cutting path id: path10634)
(Change tool to Cone cutter)

G00 Z-1.000000
G00 X31.649884 Y11.560333

G01 Z1.000000 F100.0(Penetrate)
G01 X31.649884 Y69.999989 Z1.000000 F400.000000
G01 X27.317541 Y69.999989 Z1.000000
G01 X27.317541 Y11.560333 Z1.000000
G01 X31.649884 Y11.560333 Z1.000000
G00 Z-1.000000

(End cutting path id: path10634)


(Start cutting path id: path10632)
(Change tool to Cone cutter)

G00 Z-1.000000
G00 X48.016527 Y11.560333

G01 Z1.000000 F100.0(Penetrate)
G01 X48.016527 Y53.895200 Z1.000000 F400.000000
G01 X44.117418 Y53.895200 Z1.000000
G01 X44.117418 Y47.477202 Z1.000000
G03 X42.390365 Y51.847774 Z1.000000 I-39.551600 J-13.102492
G03 X41.373600 Y53.416839 Z1.000000 I-5.987253 J-2.765814
G03 X39.949358 Y54.520992 Z1.000000 I-3.667409 J-3.259936
G03 X38.581646 Y54.851920 Z1.000000 I-1.367712 J-2.660889
G03 X36.595368 Y54.366969 Z1.000000 I-0.000000 J-4.310208
G03 X34.128959 Y52.539846 Z1.000000 I4.476476 J-8.620981
G01 X35.621212 Y45.882668 Z1.000000
G02 X37.346832 Y47.101255 Z1.000000 I4.643856 J-4.744983
G02 X38.798263 Y47.437339 Z1.000000 I1.451431 J-2.966076
G02 X40.058217 Y47.107294 Z1.000000 I0.000000 J-2.569975
G02 X41.349532 Y46.002258 Z1.000000 I-2.145410 J-3.814083
G02 X42.244379 Y44.497106 Z1.000000 I-4.709872 J-3.818705
G02 X42.962127 Y42.095651 Z1.000000 I-11.483038 J-4.740043
G02 X43.489344 Y38.250551 Z1.000000 I-37.984074 J-7.166847
G02 X43.684183 Y33.724350 Z1.000000 I-52.475355 J-4.526201
G01 X43.684183 Y11.560333 Z1.000000
G01 X48.016527 Y11.560333 Z1.000000
G00 Z-1.000000

(End cutting path id: path10632)


(Start cutting path id: path10630)
(Change tool to Cone cutter)

G00 Z-1.000000
G00 X72.542389 Y32.727767

G01 Z1.000000 F100.0(Penetrate)
G02 X71.848724 Y24.767190 Z1.000000 I-46.025083 J0.000000 F400.000000
G02 X70.400286 Y20.529585 Z1.000000 I-14.238158 J2.500340
G02 X67.717676 Y17.403206 Z1.000000 I-8.325081 J4.429286
G02 X65.008926 Y16.503387 Z1.000000 I-2.708750 J3.627207
G02 X62.327461 Y17.404399 Z1.000000 I0.000000 J4.440605
G02 X59.641634 Y20.569448 Z1.000000 I5.774111 J7.621957
G02 X58.199174 Y24.808532 Z1.000000 I12.677436 J6.678792
G02 X57.499531 Y32.966946 Z1.000000 I47.217121 J8.158414
G02 X58.193857 Y40.645099 Z1.000000 I42.801291 J0.000000
G02 X59.665702 Y44.846222 Z1.000000 I14.038288 J-2.559865
G02 X62.349080 Y48.015330 Z1.000000 I8.504420 J-4.480342
G02 X65.008926 Y48.912282 Z1.000000 I2.659846 J-3.495312
G02 X67.717676 Y48.012464 Z1.000000 I-0.000000 J-4.527025
G02 X70.400286 Y44.886085 Z1.000000 I-5.642472 J-7.555665
G02 X71.846661 Y40.686328 Z1.000000 I-12.517908 J-6.660042
G02 X72.542389 Y32.727767 Z1.000000 I-45.171840 J-7.958561
G01 X72.542389 Y32.727767 Z1.000000
G00 Z-1.000000

(End cutting path id: path10630)


(Start cutting path id: path10630)
(Change tool to Cone cutter)

G00 Z-1.000000
G00 X76.995076 Y32.727767

G01 Z1.000000 F100.0(Penetrate)
G03 X75.724123 Y44.088076 Z1.000000 I-51.407104 J-0.000000 F400.000000
G03 X73.047829 Y50.148045 Z1.000000 I-16.838073 J-3.815325
G03 X69.164427 Y53.725482 Z1.000000 I-10.133083 J-7.103244
G03 X65.008926 Y54.851920 Z1.000000 I-4.155501 J-7.101735
G03 X60.518679 Y53.493179 Z1.000000 I-0.000000 J-8.098857
G03 X56.392376 Y49.111599 Z1.000000 I7.390670 J-11.093819
G03 X54.074547 Y43.131842 Z1.000000 I17.257949 J-10.128489
G03 X53.046844 Y33.325717 Z1.000000 I46.270172 J-9.806125
G03 X53.514630 Y25.226153 Z1.000000 I70.354696 J-0.000000
G03 X54.539096 Y20.449858 Z1.000000 I25.336266 J2.936354
G03 X56.487282 Y16.092221 Z1.000000 I19.762818 J6.221133
G03 X58.847371 Y13.194730 Z1.000000 I10.919288 J6.484144
G03 X61.907421 Y11.229217 Z1.000000 I7.158069 J7.779380
G03 X65.008926 Y10.603613 Z1.000000 I3.101505 J7.375231
G03 X69.589714 Y11.972156 Z1.000000 I-0.000000 J8.350676
G03 X73.697681 Y16.304070 Z1.000000 I-7.142959 J10.887448
G03 X75.956948 Y22.283150 Z1.000000 I-17.032384 J9.852276
G03 X76.995076 Y32.727767 Z1.000000 I-52.022650 J10.444616
G01 X76.995076 Y32.727767 Z1.000000
G00 Z-1.000000

(End cutting path id: path10630)


(Start cutting path id: path10628)
(Change tool to Cone cutter)

G00 Z-1.000000
G00 X106.262463 Y11.560333

G01 Z1.000000 F100.0(Penetrate)
G01 X114.084748 Y53.895200 Z1.000000 F400.000000
G01 X109.607993 Y53.895200 Z1.000000
G01 X105.540407 Y29.458973 Z1.000000
G01 X104.024085 Y20.370130 Z1.000000
G03 X103.924640 Y21.047340 Z1.000000 I-72.355414 J-10.279167
G03 X102.700320 Y29.100202 Z1.000000 I-10232.608493 J-1551.599793
G01 X98.632725 Y53.895200 Z1.000000
G01 X94.180043 Y53.895200 Z1.000000
G01 X90.353142 Y29.339383 Z1.000000
G01 X89.077505 Y21.247125 Z1.000000
G01 X87.609321 Y29.419109 Z1.000000
G01 X83.228840 Y53.895200 Z1.000000
G01 X79.016842 Y53.895200 Z1.000000
G01 X87.007603 Y11.560333 Z1.000000
G01 X91.508431 Y11.560333 Z1.000000
G01 X95.576018 Y36.913417 Z1.000000
G01 X96.562831 Y44.128682 Z1.000000
G01 X101.737570 Y11.560333 Z1.000000
G01 X106.262463 Y11.560333 Z1.000000
G00 Z-1.000000

(End cutting path id: path10628)


(Start cutting path id: path10626)
(Change tool to Cone cutter)

G00 Z-1.000000
G00 X137.238718 Y11.560333

G01 Z1.000000 F100.0(Penetrate)
G01 X137.238718 Y19.732318 Z1.000000 F400.000000
G01 X132.304657 Y19.732318 Z1.000000
G01 X132.304657 Y11.560333 Z1.000000
G03 X132.598924 Y7.105787 Z1.000000 I33.863029 J-0.000000
G03 X133.267406 Y4.305205 Z1.000000 I13.963642 J1.852963
G03 X134.571569 Y1.768114 Z1.000000 I9.488255 J3.273590
G03 X136.324114 Y-0.000036 Z1.000000 I6.233124 J4.425499
G01 X137.527541 Y3.069442 Z1.000000
G02 X136.390571 Y4.237997 Z1.000000 I2.817821 J3.879050
G02 X135.505776 Y6.019329 Z1.000000 I5.885582 J4.033802
G02 X135.052772 Y7.967299 Z1.000000 I9.588626 J3.256509
G02 X134.783720 Y11.560333 Z1.000000 I32.592450 J4.247168
G01 X137.238718 Y11.560333 Z1.000000
G00 Z-1.000000

(End cutting path id: path10626)


(Start cutting path id: path10624)
(Change tool to Cone cutter)

G00 Z-1.000000
G00 X162.943960 Y32.727767

G01 Z1.000000 F100.0(Penetrate)
G02 X162.250295 Y24.767190 Z1.000000 I-46.025066 J0.000000 F400.000000
G02 X160.801857 Y20.529585 Z1.000000 I-14.238155 J2.500340
G02 X158.119246 Y17.403206 Z1.000000 I-8.325086 J4.429290
G02 X155.410497 Y16.503387 Z1.000000 I-2.708749 J3.627205
G02 X152.729030 Y17.404399 Z1.000000 I-0.000000 J4.440611
G02 X150.043202 Y20.569448 Z1.000000 I5.774107 J7.621957
G02 X148.600742 Y24.808532 Z1.000000 I12.677433 J6.678792
G02 X147.901099 Y32.966946 Z1.000000 I47.217103 J8.158414
G02 X148.595424 Y40.645100 Z1.000000 I42.801353 J0.000000
G02 X150.067267 Y44.846222 Z1.000000 I14.038301 J-2.559863
G02 X152.750646 Y48.015329 Z1.000000 I8.504410 J-4.480338
G02 X155.410497 Y48.912282 Z1.000000 I2.659851 J-3.495324
G02 X158.119246 Y48.012464 Z1.000000 I-0.000000 J-4.527023
G02 X160.801857 Y44.886085 Z1.000000 I-5.642476 J-7.555669
G02 X162.248232 Y40.686328 Z1.000000 I-12.517904 J-6.660043
G02 X162.943960 Y32.727767 Z1.000000 I-45.171823 J-7.958561
G01 X162.943960 Y32.727767 Z1.000000
G00 Z-1.000000

(End cutting path id: path10624)


(Start cutting path id: path10624)
(Change tool to Cone cutter)

G00 Z-1.000000
G00 X167.396643 Y32.727767

G01 Z1.000000 F100.0(Penetrate)
G03 X166.125691 Y44.088076 Z1.000000 I-51.407094 J-0.000000 F400.000000
G03 X163.449396 Y50.148045 Z1.000000 I-16.838071 J-3.815326
G03 X159.565994 Y53.725482 Z1.000000 I-10.133086 J-7.103245
G03 X155.410497 Y54.851920 Z1.000000 I-4.155497 J-7.101725
G03 X150.920248 Y53.493179 Z1.000000 I-0.000000 J-8.098863
G03 X146.793946 Y49.111599 Z1.000000 I7.390664 J-11.093810
G03 X144.476118 Y43.131842 Z1.000000 I17.257956 J-10.128488
G03 X143.448416 Y33.325717 Z1.000000 I46.270194 J-9.806125
G03 X143.916200 Y25.226152 Z1.000000 I70.354806 J0.000000
G03 X144.940665 Y20.449858 Z1.000000 I25.336299 J2.936353
G03 X146.888852 Y16.092220 Z1.000000 I19.762873 J6.221157
G03 X149.248937 Y13.194730 Z1.000000 I10.919300 J6.484146
G03 X152.308987 Y11.229217 Z1.000000 I7.158059 J7.779367
G03 X155.410497 Y10.603613 Z1.000000 I3.101510 J7.375252
G03 X159.991281 Y11.972155 Z1.000000 I-0.000000 J8.350667
G03 X164.099250 Y16.304070 Z1.000000 I-7.142969 J10.887460
G03 X166.358516 Y22.283150 Z1.000000 I-17.032390 J9.852275
G03 X167.396643 Y32.727767 Z1.000000 I-52.022676 J10.444617
G01 X167.396643 Y32.727767 Z1.000000
G00 Z-1.000000

(End cutting path id: path10624)


(Start cutting path id: path10622)
(Change tool to Cone cutter)

G00 Z-1.000000
G00 X176.831525 Y11.560333

G01 Z1.000000 F100.0(Penetrate)
G01 X176.831525 Y69.999989 Z1.000000 F400.000000
G01 X172.499180 Y69.999989 Z1.000000
G01 X172.499180 Y11.560333 Z1.000000
G01 X176.831525 Y11.560333 Z1.000000
G00 Z-1.000000

(End cutting path id: path10622)


(Start cutting path id: path10620)
(Change tool to Cone cutter)

G00 Z-1.000000
G00 X187.782728 Y11.560333

G01 Z1.000000 F100.0(Penetrate)
G01 X187.782728 Y69.999989 Z1.000000 F400.000000
G01 X183.450383 Y69.999989 Z1.000000
G01 X183.450383 Y11.560333 Z1.000000
G01 X187.782728 Y11.560333 Z1.000000
G00 Z-1.000000

(End cutting path id: path10620)


(Start cutting path id: path10618)
(Change tool to Cone cutter)

G00 Z-1.000000
G00 X197.602705 Y25.193594

G01 Z1.000000 F100.0(Penetrate)
G01 X193.125950 Y24.276738 Z1.000000 F400.000000
G03 X194.821196 Y18.061338 Z1.000000 I30.418032 J4.957608
G03 X197.049125 Y14.191313 Z1.000000 I13.799627 J5.367980
G03 X200.360454 Y11.532790 Z1.000000 I7.583389 J6.054027
G03 X204.365976 Y10.603613 Z1.000000 I4.005521 J8.168964
G03 X209.164036 Y12.007751 Z1.000000 I0.000000 J8.899762
G03 X213.271341 Y16.304070 Z1.000000 I-6.782199 J10.595284
G03 X215.530622 Y22.313198 Z1.000000 I-17.653090 J10.066398
G03 X216.544670 Y32.368996 Z1.000000 I-49.352103 J10.055798
G03 X215.512135 Y42.781696 Z1.000000 I-53.020240 J-0.000000
G03 X213.223204 Y48.952146 Z1.000000 I-20.565968 J-4.119191
G03 X209.090365 Y53.464000 Z1.000000 I-11.752352 J-6.616345
G03 X204.606661 Y54.851920 Z1.000000 I-4.483704 J-6.548392
G03 X200.270421 Y53.500935 Z1.000000 I0.000000 J-7.634480
G03 X196.230795 Y49.071736 Z1.000000 I7.554187 J-10.946512
G03 X193.992365 Y43.026913 Z1.000000 I17.916021 J-10.071261
G03 X192.981539 Y32.807493 Z1.000000 I51.153594 J-10.219420
G03 X192.985553 Y32.169717 Z1.000000 I50.666071 J-0.000000
G03 X193.005627 Y30.894053 Z1.000000 I202.726100 J2.552084
G01 X212.067938 Y30.894053 Z1.000000
G02 X211.200361 Y24.097701 Z1.000000 I-37.074457 J1.279124
G02 X209.685149 Y20.210677 Z1.000000 I-13.424218 J2.994098
G02 X207.053349 Y17.351903 Z1.000000 I-7.703743 J4.451288
G02 X204.341926 Y16.503387 Z1.000000 I-2.711423 J3.907905
G02 X202.203483 Y17.016860 Z1.000000 I-0.000000 J4.709687
G02 X200.274340 Y18.576280 Z1.000000 I2.720646 J5.338657
G02 X198.949126 Y20.822060 Z1.000000 I6.798234 J5.525463
G02 X197.602729 Y25.193594 Z1.000000 I24.996290 J10.091764
G01 X197.602705 Y25.193594 Z1.000000
G00 Z-1.000000

(End cutting path id: path10618)


(Start cutting path id: path10618)
(Change tool to Cone cutter)

G00 Z-1.000000
G00 X211.827229 Y36.793827

G01 Z1.000000 F100.0(Penetrate)
G01 X197.554568 Y36.793827 Z1.000000 F400.000000
G02 X198.227562 Y42.033033 Z1.000000 I35.798410 J-1.935603
G02 X199.191229 Y44.806359 Z1.000000 I10.851500 J-2.216555
G02 X201.835728 Y48.023027 Z1.000000 I8.348847 J-4.168399
G02 X204.558524 Y48.952146 Z1.000000 I2.722795 J-3.525035
G02 X207.116196 Y48.186398 Z1.000000 I0.000000 J-4.654313
G02 X209.588852 Y45.643489 Z1.000000 I-4.514074 J-6.862988
G02 X211.051551 Y42.165689 Z1.000000 I-10.744369 J-6.565378
G02 X211.827229 Y36.793827 Z1.000000 I-25.262629 J-6.389770
G01 X211.827229 Y36.793827 Z1.000000
G00 Z-1.000000

(End cutting path id: path10618)


(Start cutting path id: path10616)
(Change tool to Cone cutter)

G00 Z-1.000000
G00 X249.999988 Y11.560333

G01 Z1.000000 F100.0(Penetrate)
G01 X249.999988 Y69.999989 Z1.000000 F400.000000
G01 X245.330685 Y69.999989 Z1.000000
G01 X245.330685 Y46.002258 Z1.000000
G01 X226.990430 Y46.002258 Z1.000000
G01 X226.990430 Y69.999989 Z1.000000
G01 X222.321126 Y69.999989 Z1.000000
G01 X222.321126 Y11.560333 Z1.000000
G01 X226.990430 Y11.560333 Z1.000000
G01 X226.990430 Y39.105901 Z1.000000
G01 X245.330685 Y39.105901 Z1.000000
G01 X245.330685 Y11.560333 Z1.000000
G01 X249.999988 Y11.560333 Z1.000000
G00 Z-1.000000

(End cutting path id: path10616)


(Footer)
M5
G00 X0.0000 Y0.0000
M2
(Using default footer. To add your own footer create file "footer" in the output dir.)
(end)
%
G01 Z1.000000 F100.0(Penetrate)
